X: 10861
T: KEMPSHOTT HUNT
%R: march, reel
B: "Edinburgh Repository of Music" v.1 p.86 #1
F: http://digital.nls.uk/special-collections-of-printed-music/pageturner.cfm?id=87776133
Z: 2015 John Chambers <jc:trillian.mit.edu>
M: 2/4
L: 1/8
K: A
f |\
e2ce | {d}cB/A/ ce | ce (d/c/)(B/A/) | dBBf |\
e2ce | {d}cB/A/ ce | cedf | eAA :|\
|: B |\
(3(ABA) e>c | f>de>c | (3ABA ec | dBBc |
(3ABA e>c | fded | cedf | eAA :|\
|: e |\
{g}a2ec | {g}a2ec | {g}a2ec | dBBg |\
{g}a2ec | {g}a2fd | cedf | eAA :|
